X: 1
T:Fill Up The Bowl -- Reel
M:C|
L:1/8
R:reel
B:Ryan's Mammoth Collection
Z:Contributed by Ray Davies,  ray:davies99.freeserve.co.uk
K:G
uD|G2BG c2eg|dBAG FAFD|G2BG c2eg|dBAB G2D2|
G2BG c2eg|dBAG FAFD|G2BG c2eg|dBAc BGG::
d|gagf e2e2|eaag fdef|gagf e2e2|dgfd g2 z d|
gagf e2e2|eaag fdef|gagf edef|gedB G2z:|
